X:1
T:Galopp
C:traditionell
R:galopp
A:Engelitz
%%textfont Helvetica-Narrow 10pt
%%begintext align
B:"Die Sackpfyf schoen Macht siss gethoen", 43 Volkstaenze u. Schaeferlieder aus Schwaben, compilation G.Balling, publisher Schwaebischer Albverein, Stuttgart 1997 
%%endtext
F:http://simonwascher.info
Z:abc transcription Simon Wascher
M:2/4
L:1/8
K:G
ed |\
Bc/B/ AG | FA ed | cd/c/ BA | GB ed |
Bc/B/ AG | FA ed | cd/c/ BA | G2 :|
|: zG |\
{d}c2{d}c2 | {d}c2{d}c2 | B>d gd | B>d gd |
{d}c2{d}c2 | {d}c2{d}c2 | B>c AB | G2 :|
%%wordsfont Times-Italic 11pt
W:aus Simon Waschers TradArchiv
